packages/core/assets/Icons/fullscreen_exit.svg

<svg viewBox="0 0 20 20" fill="none" xmlns="http://www.w3.org/2000/svg">
<path d="M5 15H3.33333C3.09722 15 2.89931 14.9201 2.73958 14.7604C2.57986 14.6007 2.5 14.4028 2.5 14.1667C2.5 13.9306 2.57986 13.7326 2.73958 13.5729C2.89931 13.4132 3.09722 13.3333 3.33333 13.3333H5.83333C6.06944 13.3333 6.26736 13.4132 6.42708 13.5729C6.58681 13.7326 6.66667 13.9306 6.66667 14.1667V16.6667C6.66667 16.9028 6.58681 17.1007 6.42708 17.2604C6.26736 17.4201 6.06944 17.5 5.83333 17.5C5.59722 17.5 5.39931 17.4201 5.23958 17.2604C5.07986 17.1007 5 16.9028 5 16.6667V15ZM15 15V16.6667C15 16.9028 14.9201 17.1007 14.7604 17.2604C14.6007 17.4201 14.4028 17.5 14.1667 17.5C13.9306 17.5 13.7326 17.4201 13.5729 17.2604C13.4132 17.1007 13.3333 16.9028 13.3333 16.6667V14.1667C13.3333 13.9306 13.4132 13.7326 13.5729 13.5729C13.7326 13.4132 13.9306 13.3333 14.1667 13.3333H16.6667C16.9028 13.3333 17.1007 13.4132 17.2604 13.5729C17.4201 13.7326 17.5 13.9306 17.5 14.1667C17.5 14.4028 17.4201 14.6007 17.2604 14.7604C17.1007 14.9201 16.9028 15 16.6667 15H15ZM5 5V3.33333C5 3.09722 5.07986 2.89931 5.23958 2.73958C5.39931 2.57986 5.59722 2.5 5.83333 2.5C6.06944 2.5 6.26736 2.57986 6.42708 2.73958C6.58681 2.89931 6.66667 3.09722 6.66667 3.33333V5.83333C6.66667 6.06944 6.58681 6.26736 6.42708 6.42708C6.26736 6.58681 6.06944 6.66667 5.83333 6.66667H3.33333C3.09722 6.66667 2.89931 6.58681 2.73958 6.42708C2.57986 6.26736 2.5 6.06944 2.5 5.83333C2.5 5.59722 2.57986 5.39931 2.73958 5.23958C2.89931 5.07986 3.09722 5 3.33333 5H5ZM15 5H16.6667C16.9028 5 17.1007 5.07986 17.2604 5.23958C17.4201 5.39931 17.5 5.59722 17.5 5.83333C17.5 6.06944 17.4201 6.26736 17.2604 6.42708C17.1007 6.58681 16.9028 6.66667 16.6667 6.66667H14.1667C13.9306 6.66667 13.7326 6.58681 13.5729 6.42708C13.4132 6.26736 13.3333 6.06944 13.3333 5.83333V3.33333C13.3333 3.09722 13.4132 2.89931 13.5729 2.73958C13.7326 2.57986 13.9306 2.5 14.1667 2.5C14.4028 2.5 14.6007 2.57986 14.7604 2.73958C14.9201 2.89931 15 3.09722 15 3.33333V5Z" fill="currentColor"/>
</svg>

<svg xmlns="http://www.w3.org/2000/svg" width="20" height="20" fill="none" viewBox="0 0 20 20">
  <path fill="#201F1F" d="M5 15H3.333a.806.806 0 0 1-.593-.24.806.806 0 0 1-.24-.593c0-.236.08-.434.24-.594.16-.16.357-.24.593-.24h2.5c.236 0 .434.08.594.24.16.16.24.358.24.594v2.5c0 .236-.08.434-.24.593a.806.806 0 0 1-.594.24.806.806 0 0 1-.593-.24.806.806 0 0 1-.24-.593V15Zm10 0v1.667c0 .236-.08.434-.24.593a.806.806 0 0 1-.593.24.807.807 0 0 1-.594-.24.806.806 0 0 1-.24-.593v-2.5c0-.236.08-.434.24-.594.16-.16.358-.24.594-.24h2.5c.236 0 .434.08.593.24.16.16.24.358.24.594s-.08.434-.24.593a.806.806 0 0 1-.593.24H15ZM5 5V3.333c0-.236.08-.434.24-.593.16-.16.357-.24.593-.24s.434.08.594.24c.16.16.24.357.24.593v2.5c0 .236-.08.434-.24.594a.806.806 0 0 1-.594.24h-2.5a.806.806 0 0 1-.593-.24.806.806 0 0 1-.24-.594c0-.236.08-.434.24-.593.16-.16.357-.24.593-.24H5Zm10 0h1.667c.236 0 .434.08.593.24.16.16.24.357.24.593s-.08.434-.24.594a.806.806 0 0 1-.593.24h-2.5a.806.806 0 0 1-.594-.24.806.806 0 0 1-.24-.594v-2.5c0-.236.08-.434.24-.593.16-.16.358-.24.594-.24s.434.08.593.24c.16.16.24.357.24.593V5Z"/>
</svg>
